boxing-glove.svg

<svg  viewBox="0 0 24 24" fill="currentColor"><path  d="M19,16V6H22V16H19M12,4C8,4 7,4 7,4C7,4 2,4 2,8V14C2,15.77 3,16.76 4.07,17.31C4.4,15.43 6.03,14 8,14H11V16H8A2,2 0 0,0 6,18C6,19.11 6.9,20 8,20H13C17,20 17,16 17,16V6C17,6 16,4 12,4Z"/></svg>

<svg fill="currentColor" viewBox="0 0 24 24"><path d="M19 16V6h3v10zM12 4H7S2 4 2 8v6c0 1.77 1 2.76 2.07 3.31A3.996 3.996 0 0 1 8 14h3v2H8a2 2 0 0 0-2 2 2 2 0 0 0 2 2h5c4 0 4-4 4-4V6s-1-2-5-2"/></svg>
